X:17718
T:Traver's
R:reel
D:Matt Molloy: "Black album"
D:Davy Spillane: Atlantic Bridge
Z:id:hn-reel-617
M:C|
K:Ador
A2dA eAdA|~A2BG AGEG|A2dA eAdg|gedB GBdB|
A2dA eAdA|~A2BG AGEG|c3A ~B3c|dBAG EFGA:|
|:(3B^cd ed gedB|GBAF GED2|(3B^cd ef ~g3e|~a3f gfed|
(3B^cd ed gedB|GBAF GED2|c3A ~B3c|1 dBAG EFGA:|2 dBAG EFGB||
